X:23
T:Green Mountain, The
R:reel
M:C|
Q:1/4=205
K:D
AF~F2 AFEF|DF~F2 ABde|~f2df efdB|Adfd edBd|
AF~F2 AFEF|DF~F2 ABde|~f2df efdB|1 AFEF D3B:|2 AFEF D3e||
|:fa~a2 bfaf|defd efde|f2df efdB|Adfd edBd|
  fa~a2 bfaf|defd e2de|f2df efdB|1 AFEF D3e:|2 AFEF D3B||
